X: 177
T: Salve regina III
N: Derived from Rue2023-Salve_regina_III.krn
C: Pierre de la Rue
%%abc-version 2.0
%%abcx-abcm2ps-target-version 5.9.1 (29 Sep 2008)
%%abc-creator hum2abc beta
%%abcx-conversion-date 2019/02/17 08:01:17
%%abc-edited-by Jesse Rodin
%%abc-edited-by Chris Gage 02-12-2013
%%abcx-initial-encoding-date 2013/02/19/
%%humdrum-veritas 1325739204
%%humdrum-veritas-data 2211262551
%%linebreak <none>
%%barnumbers 0
L: 1/4
M: 4/2
Q: 1/2=120
%%staves [1 2 3 4]
V: 1 clef=treble
V: 2 clef=treble
V: 3 clef=treble-8
V: 4 clef=bass
K: C
[V:1] z8 | 
[V:2] z8 | 
[V:3] e4d2e2- | 
[V:4] z8 | 
[V:1] z8 | 
[V:2] z8 | 
[V:3] edcAB2A2 | 
[V:4] A,4G,2A,2- | 
[V:1] z8 | 
[V:2] A4G2A2- | 
[V:3] z8 | 
[V:4] A,G,F,D,E,2D,2 | 
[V:1] d4c2d2- | 
[V:2] AGFDE2D2 | 
[V:3] z8 | 
[V:4] D,4A,2B,2- | 
[V:1] dcBGA2G2 | 
[V:2] z2G2F2G2- | 
[V:3] e4d2e2- | 
[V:4] B,A,G,E,F,2E,2 | 
[V:1] e4d2e2- | 
[V:2] GFECD2C2- | 
[V:3] edcAB2A2- | 
[V:4] z4z2C2- | 
[V:1] edcAB2A2- | 
[V:2] CDEFE2A,2 | 
[V:3] A2A2e3d | 
[V:4] CB,A,F,G,2A,2 | 
[V:1] A2^G2A2e2- | 
[V:2] E8 | 
[V:3] cAB2A4 | 
[V:4] E,4z2C2- | 
[V:1] edB2c2A2- | 
[V:2] z2G2A2c2- | 
[V:3] z8 | 
[V:4] CB,G,2F,2A,2 | 
[V:1] A2G2ABcd | 
[V:2] c2B2c2A2 | 
[V:3] z8 | 
[V:4] E,4z4 | 
[V:1] e4f3e | 
[V:2] GABcd3c | 
[V:3] e4d4 | 
[V:4] z8 | 
[V:1] dcBAB4 | 
[V:2] BA^G^FG4 | 
[V:3] e8 | 
[V:4] z8 | 
[V:1] A4z4 | 
[V:2] A4z4 | 
[V:3] A2e3df2 | 
[V:4] A,8 | 
[V:1] z8 | 
[V:2] z8 | 
[V:3] fedcB2A2 | 
[V:4] B,4G,2A,2 | 
[V:1] c8 | 
[V:2] A4E2A2- | 
[V:3] z2e3df2- | 
[V:4] z2A,4A,2 | 
[V:1] d4c3d | 
[V:2] A2G2A3G | 
[V:3] f2d2e2A2 | 
[V:4] B,4A,4 | 
[V:1] e2A2c4 | 
[V:2] E2A3GFE | 
[V:3] z2e3df2- | 
[V:4] z2A,4A,2 | 
[V:1] d2c2d4 | 
[V:2] D2A4^G2 | 
[V:3] f2e4d2 | 
[V:4] B,2C2B,4 | 
[V:1] c4z2AB | 
[V:2] A8 | 
[V:3] e8 | 
[V:4] A,8 | 
[V:1] cAd4c2 | 
[V:2] z2DEFDA2- | 
[V:3] z8 | 
[V:4] z8 | 
[V:1] B2e2cdec | 
[V:2] A2^G2A4- | 
[V:3] z8 | 
[V:4] z8 | 
[V:1] f2e4d2 | 
[V:2] A8 | 
[V:3] z8 | 
[V:4] z2A,B,CA,D2 | 
[V:1] e8 | 
[V:2] z8 | 
[V:3] efgea2g2- | 
[V:4] C8 | 
[V:1] z8 | 
[V:2] z8 | 
[V:3] gfd2cdec | 
[V:4] G,A,B,G,C4 | 
[V:1] z8 | 
[V:2] z8 | 
[V:3] f2ed2c_BA | 
[V:4] F,G,A,F,_B,2A,2- | 
[V:1] z4c4- | 
[V:2] z4A3G | 
[V:3] _B4A4- | 
[V:4] A,2G,2A,4- | 
[V:1] c4d4 | 
[V:2] E2F4ED | 
[V:3] A4z4 | 
[V:4] A,4D,4 | 
[V:1] e3dB2c2- | 
[V:2] CDEFG2A2 | 
[V:3] z8 | 
[V:4] z8 | 
[V:1] c2BAGABc | 
[V:2] F4E4 | 
[V:3] z8 | 
[V:4] z4E,F,G,A, | 
[V:1] d2e2c4 | 
[V:2] z8 | 
[V:3] z4cdef | 
[V:4] B,2C2A,4 | 
[V:1] B2e4d2 | 
[V:2] z8 | 
[V:3] g3af4 | 
[V:4] G,4z4 | 
[V:1] e8 | 
[V:2] z8 | 
[V:3] e8 | 
[V:4] A,4A,2C2- | 
[V:1] z8 | 
[V:2] z8 | 
[V:3] z2A4B2 | 
[V:4] CB,A,G,F,2E,2- | 
[V:1] z8 | 
[V:2] z8 | 
[V:3] c2d4G2 | 
[V:4] E,2D,2D,2E,2 | 
[V:1] z8 | 
[V:2] z8 | 
[V:3] A2B2c4 | 
[V:4] F,2G,4C,2 | 
[V:1] z8 | 
[V:2] z2A2A4 | 
[V:3] B2e4d2 | 
[V:4] D,3E,F,4 | 
[V:1] z4z2e2 | 
[V:2] G4c2c2- | 
[V:3] e4z4 | 
[V:4] E,4z4 | 
[V:1] e4d4 | 
[V:2] c2A2BAGF | 
[V:3] z8 | 
[V:4] z8 | 
[V:1] c2c4A2 | 
[V:2] E2A4F2 | 
[V:3] z8 | 
[V:4] z8 | 
[V:1] B2A2e3d | 
[V:2] G2A2c3B | 
[V:3] z4e4 | 
[V:4] z4A,4 | 
[V:1] cBdcBAA2- | 
[V:2] AGBAGFE2- | 
[V:3] e2B2d2c2 | 
[V:4] A,2G,4A,2 | 
[V:1] A2^G2A4 | 
[V:2] E2E2C4 | 
[V:3] B4ABcd | 
[V:4] E,4A,,2A,2 | 
[V:1] z4A4 | 
[V:2] B,2C3B,A,G, | 
[V:3] e2f4e2- | 
[V:4] G,2A,3G,F,E, | 
[V:1] z4z2c2 | 
[V:2] A,4B,2G2 | 
[V:3] e2d2e4 | 
[V:4] F,4E,4 | 
[V:1] d2e4f2- | 
[V:2] A2B4c2- | 
[V:3] f2g4a2- | 
[V:4] z8 | 
[V:1] fee4d2 | 
[V:2] cBAGA4 | 
[V:3] agfef4 | 
[V:4] z8 | 
[V:1] e8 | 
[V:2] B8- | 
[V:3] e8 | 
[V:4] E,8- | 
[V:1] g4e2g2- | 
[V:2] B8 | 
[V:3] z8 | 
[V:4] E,8 | 
[V:1] gfe4d2 | 
[V:2] z2B3AGF | 
[V:3] g8- | 
[V:4] z2G,2E,2G,2- | 
[V:1] e2g2e2g2- | 
[V:2] E8 | 
[V:3] g8 | 
[V:4] G,F,E,4E,2 | 
[V:1] g2f4ed | 
[V:2] z4F4 | 
[V:3] d8 | 
[V:4] G,2D,4D,2 | 
[V:1] c2B2g3f | 
[V:2] E2G3AB2 | 
[V:3] e6d2 | 
[V:4] A,2G,2E,4 | 
[V:1] e4d3c | 
[V:2] c2A2B4 | 
[V:3] c4B4 | 
[V:4] z4G,4- | 
[V:1] B2A4d2- | 
[V:2] B2d3cBA | 
[V:3] d8 | 
[V:4] G,2F,2D,4 | 
[V:1] d2^c2d2A2 | 
[V:2] A8 | 
[V:3] e4z4 | 
[V:4] A,4D,2F,2 | 
[V:1] B2c3BAG | 
[V:2] G2E2F2E2- | 
[V:3] z8 | 
[V:4] G,2A,3G,F,E, | 
[V:1] A4G4- | 
[V:2] E2D2E4- | 
[V:3] A4B4- | 
[V:4] F,4E,4- | 
[V:1] G4z2G2- | 
[V:2] E4z2G2- | 
[V:3] B4c4 | 
[V:4] E,4C,4 | 
[V:1] GAB2A2d2- | 
[V:2] GFD2A4- | 
[V:3] d8 | 
[V:4] G,4F,2D,2 | 
[V:1] d2^c2d4 | 
[V:2] A8 | 
[V:3] e4f4 | 
[V:4] A,4D,4 | 
[V:1] B2c3Bc2 | 
[V:2] z2A4A2 | 
[V:3] d2e4e2 | 
[V:4] z2A,4A,2 | 
[V:1] d2B4B2 | 
[V:2] A2G4G2- | 
[V:3] f2d4d2 | 
[V:4] D,2G,4G,2 | 
[V:1] c2A4A2 | 
[V:2] G2F4F2 | 
[V:3] e2c4c2 | 
[V:4] C,2F,4A,2 | 
[V:1] B2G4G2 | 
[V:2] G6E2 | 
[V:3] d2B2c4 | 
[V:4] G,3F,E,D,C,2- | 
[V:1] A2B4A2- | 
[V:2] G3FE2D2 | 
[V:3] c2d3cBA | 
[V:4] C,2G,3A,F,2 | 
[V:1] A2^G2A4 ||  
[V:2] E4E4 ||  
[V:3] B4A4 ||  
[V:4] E,4A,,4 ||  
[V:1]  [K:C] [K:clef=treble][M:4/2]c8 | 
[V:2]  [K:C] [K:clef=treble][M:4/2]A8 | 
[V:3]  [K:C] [K:clef=treble-8][M:4/2]e8 | 
[V:4]  [K:C] [K:clef=bass][M:4/2]A,8 | 
[V:1] e4f4 | 
[V:2] E4A4 | 
[V:3] B4d4 | 
[V:4] G,4F,4 | 
[V:1] g4g2e2- | 
[V:2] G8- | 
[V:3] e8- | 
[V:4] E,8 | 
[V:1] e2d2c4 | 
[V:2] G4C4 | 
[V:3] e8 | 
[V:4] z4A,4 | 
[V:1] B3cA4 | 
[V:2] D2E4D2 | 
[V:3] z8 | 
[V:4] G,4F,4 | 
[V:1] G3AB2c2- | 
[V:2] E8 | 
[V:3] z4e4 | 
[V:4] E,8 | 
[V:1] c2B4A2 | 
[V:2] z4E4 | 
[V:3] d4c4 | 
[V:4] z8 | 
[V:1] B4z2e2 | 
[V:2] D4E4 | 
[V:3] B8- | 
[V:4] z4E,4 | 
[V:1] d4B4 | 
[V:2] B,4E4- | 
[V:3] B8 | 
[V:4] G,4G,4 | 
[V:1] c6BA | 
[V:2] E4C3D | 
[V:3] z8 | 
[V:4] A,6G,F, | 
[V:1] G4B4 | 
[V:2] E4E4 | 
[V:3] z4B4 | 
[V:4] E,4G,4 | 
[V:1] A2d3cBA | 
[V:2] A,8 | 
[V:3] d4d4 | 
[V:4] F,8 | 
[V:1] G2B4c2 | 
[V:2] B,4E4 | 
[V:3] e6dc | 
[V:4] E,8 | 
[V:1] d3cB2A2- | 
[V:2] D4F4 | 
[V:3] B4d4 | 
[V:4] z8 | 
[V:1] A2GFG4 | 
[V:2] E6DC | 
[V:3] c8 | 
[V:4] z8 | 
[V:1] z4G4 | 
[V:2] D4E4 | 
[V:3] B8 | 
[V:4] z4E,4 | 
[V:1] ABcde2f2- | 
[V:2] C2F2E2A2- | 
[V:3] A8 | 
[V:4] F,3E,C,2D,2- | 
[V:1] f2edc2d2- | 
[V:2] A2A4F2 | 
[V:3] z8 | 
[V:4] D,E,F,G,A,2_B,2- | 
[V:1] d2c2d2_B2 | 
[V:2] G2A2_B4 | 
[V:3] z8 | 
[V:4] B,2A,4G,2 | 
[V:1] c8 | 
[V:2] A8- | 
[V:3] A4e4 | 
[V:4] A,8 | 
[V:1] d8 | 
[V:2] A8- | 
[V:3] f8 | 
[V:4] D,8 | 
[V:1] e6dc | 
[V:2] A8 | 
[V:3] e8 | 
[V:4] A,8 | 
[V:1] d8 | 
[V:2] F4G4 | 
[V:3] z4d4 | 
[V:4] _B,8 | 
[V:1] c8 | 
[V:2] A8 | 
[V:3] e4e2f2- | 
[V:4] A,8 | 
[V:1] d4_B4 | 
[V:2] F4G4 | 
[V:3] f2d2e2d2- | 
[V:4] _B,4G,4 | 
[V:1] A4z2A2 | 
[V:2] A8 | 
[V:3] def2e2f2 | 
[V:4] F,4z2F,2 | 
[V:1] d4d4 | 
[V:2] z4F4 | 
[V:3] d2f4d2 | 
[V:4] _B,8 | 
[V:1] _B4A2d2- | 
[V:2] G4A4 | 
[V:3] e2d2f4 | 
[V:4] G,4F,4 | 
[V:1] d2c_Bc4 | 
[V:2] _B4A4 | 
[V:3] e4e4 | 
[V:4] G,4A,4 | 
[V:1] d8 | 
[V:2] F3GA_BA2- | 
[V:3] d8 | 
[V:4] D,4z2F,2 | 
[V:1] z8 | 
[V:2] A2G4^F2 | 
[V:3] z8 | 
[V:4] G,2_B,2A,4 | 
[V:1] B3cded2- | 
[V:2] G8 | 
[V:3] z4z2B2 | 
[V:4] G,8 | 
[V:1] d2c4B2 | 
[V:2] z8 | 
[V:3] c2e2d4 | 
[V:4] z8 | 
[V:1] c2A3B/c/d2- | 
[V:2] E3F/G/A4 | 
[V:3] c4A3B/c/ | 
[V:4] z4F,4 | 
[V:1] d2B2e4 | 
[V:2] F2D2G4 | 
[V:3] d4B2e2- | 
[V:4] D,2G,4E,2 | 
[V:1] c2A2d3c | 
[V:2] E4z2F2- | 
[V:3] e2c2A2d2- | 
[V:4] A,4F,2D,2 | 
[V:1] BAA4^G2 | 
[V:2] FECDE4 | 
[V:3] dcBAB4 | 
[V:4] F,4E,4 | 
[V:1] A8 | 
[V:2] z2C3DE2 | 
[V:3] A8 | 
[V:4] A,8 | 
[V:1] z2F3GA2 | 
[V:2] F2D3EF2 | 
[V:3] z8 | 
[V:4] z8 | 
[V:1] _B2G3A=B2 | 
[V:2] G2E3FG2 | 
[V:3] z8 | 
[V:4] z8 | 
[V:1] c2A3Bc2 | 
[V:2] A2F3GA2 | 
[V:3] z8 | 
[V:4] z8 | 
[V:1] d2B4e2- | 
[V:2] D2G4E2 | 
[V:3] z8 | 
[V:4] z8 | 
[V:1] e2d2e4 | 
[V:2] F4z2E2 | 
[V:3] z8 | 
[V:4] z8 | 
[V:1] z2E2F2G2 | 
[V:2] F2G2AGFE | 
[V:3] z8 | 
[V:4] z8 | 
[V:1] AGFEF4 | 
[V:2] F2E4D2 | 
[V:3] z8 | 
[V:4] z8 | 
[V:1] E4z4 | 
[V:2] E4z4 | 
[V:3] e8 | 
[V:4] z2E,3F,G,2 | 
[V:1] z8 | 
[V:2] z8 | 
[V:3] f8 | 
[V:4] A,2F,3G,A,2 | 
[V:1] z8 | 
[V:2] z8 | 
[V:3] g8 | 
[V:4] _B,2G,3A,=B,2 | 
[V:1] z8 | 
[V:2] z8 | 
[V:3] e8 | 
[V:4] C2A,4G,2 | 
[V:1] z8 | 
[V:2] z8 | 
[V:3] c4d3e | 
[V:4] A,2E,2F,2G,2 | 
[V:1] z8 | 
[V:2] z8 | 
[V:3] f2e4d2 | 
[V:4] A,G,F,E,F,4 | 
[V:1] z8 | 
[V:2] z8 | 
[V:3] e4z4 | 
[V:4] E,8 | 
[V:1] e8 | 
[V:2] A8- | 
[V:3] c8 | 
[V:4] A,8- | 
[V:1] c8 | 
[V:2] A8 | 
[V:3] e4c4 | 
[V:4] A,8 | 
[V:1] d8 | 
[V:2] B8 | 
[V:3] g6fe | 
[V:4] G,8- | 
[V:1] B8 | 
[V:2] G6FE | 
[V:3] d8 | 
[V:4] G,8 | 
[V:1] c6BA | 
[V:2] E8 | 
[V:3] c8 | 
[V:4] A,8 | 
[V:1] A4B2A2- | 
[V:2] F6ED | 
[V:3] d8 | 
[V:4] D,8- | 
[V:1] A2GABGd2- | 
[V:2] D8 | 
[V:3] f8 | 
[V:4] D,8 | 
[V:1] d2c2d2f2- | 
[V:2] z8 | 
[V:3] e4d4 | 
[V:4] z2A,2_B,4 | 
[V:1] fee4dc | 
[V:2] A3GE2F2 | 
[V:3] c8 | 
[V:4] A,8 | 
[V:1] B2d3cA2 | 
[V:2] G4A2F2 | 
[V:3] d8 | 
[V:4] G,4F,4 | 
[V:1] G4z2G2- | 
[V:2] G2E3FG2 | 
[V:3] e4z2e2- | 
[V:4] E,8 | 
[V:1] GEF2E2G2 | 
[V:2] C2A2G2E2 | 
[V:3] ecd2e4 | 
[V:4] z8 | 
[V:1] F2E4e2- | 
[V:2] F2G2E4 | 
[V:3] d2e4g2- | 
[V:4] z2E,2E,4 | 
[V:1] ecd2e2g2 | 
[V:2] z4G4 | 
[V:3] gef2e4 | 
[V:4] z4E,4 | 
[V:1] f2e4c2 | 
[V:2] A2G4G2 | 
[V:3] d2e4e2 | 
[V:4] F,2G,2E,4 | 
[V:1] d3cBAB2- | 
[V:2] A3GFEE2- | 
[V:3] f4d3c | 
[V:4] D,4G,4 | 
[V:1] B2A4^G2 | 
[V:2] E2D2E4- | 
[V:3] dcBAB4 | 
[V:4] F,4E,4 | 
[V:1] A8 |]  
[V:2] E4E4 |]  
[V:3] A8 |]  
[V:4] A,,8 |]  



